Icons/actions/drive-unsaved-symbolic.svg

<?xml version="1.0" encoding="UTF-8" standalone="no"?>
<svg
   height="16px"
   viewBox="0 0 16 16"
   width="16px"
   version="1.1"
   id="svg1407"
   sodipodi:docname="drive-unsaved-symbolic.svg"
   inkscape:version="1.2.1 (9c6d41e410, 2022-07-14)"
   xmlns:inkscape="http://www.inkscape.org/namespaces/inkscape"
   xmlns:sodipodi="http://sodipodi.sourceforge.net/DTD/sodipodi-0.dtd"
   xmlns="http://www.w3.org/2000/svg"
   xmlns:svg="http://www.w3.org/2000/svg">
  <defs
     id="defs1411" />
  <sodipodi:namedview
     id="namedview1409"
     pagecolor="#ffffff"
     bordercolor="#000000"
     borderopacity="0.25"
     inkscape:showpageshadow="2"
     inkscape:pageopacity="0.0"
     inkscape:pagecheckerboard="0"
     inkscape:deskcolor="#d1d1d1"
     showgrid="false"
     inkscape:zoom="15.234584"
     inkscape:cx="1.050242"
     inkscape:cy="5.0542898"
     inkscape:window-width="1280"
     inkscape:window-height="731"
     inkscape:window-x="0"
     inkscape:window-y="0"
     inkscape:window-maximized="1"
     inkscape:current-layer="svg1407" />
  <path
     fill="#2e3436"
     d="M 4,0 C 2.3555,0 1,1.3555 1,3 v 10 c 0,1.6445 1.3555,3 3,3 H 7 V 13 H 4 C 3.4453,13 3,12.5547 3,12 V 3 C 3,2.4453 3.4453,2 4,2 h 8 c 0.5703,0 1,0.4297 1,1 v 4 h 2 V 3 C 15,1.3555 13.6445,0 12,0 Z M 8,3 C 5.7891,3 4,4.7891 4,7 v 4 H 7 V 8.7305 C 6.4029,8.3847 6,7.7404 6,7 6,5.8945 6.8945,5 8,5 c 1.1055,0 2,0.8945 2,2 h 2 C 12,4.7891 10.2109,3 8,3 Z"
     id="path22925" />
  <path
     class="warning"
     d="m 9.5,7.9999999 c -0.832031,0 -1.4999997,0.667969 -1.4999997,1.5000001 v 5 c 0,0.832031 0.6679687,1.5 1.4999997,1.5 h 5 c 0.832031,0 1.5,-0.667969 1.5,-1.5 v -5 C 16,8.6679689 15.332031,7.9999999 14.5,7.9999999 Z M 11,9 h 2 v 2.5 c 0,0 0,0.5 -0.5,0.5 h -1 C 11,12 11,11.5 11,11.5 Z m 0.5,4 h 1 c 0.277344,0 0.5,0.222656 0.5,0.5 v 1 c 0,0.277344 -0.222656,0.5 -0.5,0.5 h -1 C 11.222656,15 11,14.777344 11,14.5 v -1 C 11,13.222656 11.222656,13 11.5,13 Z m 0,0"
     fill="#ff7800"
     id="path292" />
</svg>

<svg xmlns="http://www.w3.org/2000/svg" width="16" height="16"><path fill="#2e3436" d="M4 0C2.355 0 1 1.355 1 3v10c0 1.645 1.355 3 3 3h3v-3H4c-.555 0-1-.445-1-1V3c0-.555.445-1 1-1h8c.57 0 1 .43 1 1v4h2V3c0-1.645-1.355-3-3-3zm4 3C5.79 3 4 4.79 4 7v4h3V8.73A1.999 1.999 0 0 1 8 5c1.106 0 2 .894 2 2h2c0-2.21-1.79-4-4-4z"/><path fill="#ff7800" d="M9.5 8C8.668 8 8 8.668 8 9.5v5c0 .832.668 1.5 1.5 1.5h5c.832 0 1.5-.668 1.5-1.5v-5c0-.832-.668-1.5-1.5-1.5zM11 9h2v2.5s0 .5-.5.5h-1c-.5 0-.5-.5-.5-.5zm.5 4h1c.277 0 .5.223.5.5v1c0 .277-.223.5-.5.5h-1a.498.498 0 0 1-.5-.5v-1c0-.277.223-.5.5-.5zm0 0"/></svg>
